app/src/main/assets/symbols/transport/rental_car.svg

<?xml version="1.0" encoding="UTF-8" standalone="no"?>
<svg
   xmlns:dc="http://purl.org/dc/elements/1.1/"
   xmlns:cc="http://creativecommons.org/ns#"
   xmlns:rdf="http://www.w3.org/1999/02/22-rdf-syntax-ns#"
   xmlns:svg="http://www.w3.org/2000/svg"
   xmlns="http://www.w3.org/2000/svg"
   version="1.1"
   width="16"
   height="16"
   viewBox="0 0 16 16"
   id="svg2">
  <metadata id="metadata8">
    <rdf:RDF>
      <cc:Work rdf:about="">
        <dc:format>image/svg+xml</dc:format>
        <dc:type rdf:resource="http://purl.org/dc/dcmitype/StillImage"/>
        <dc:title/>
      </cc:Work>
    </rdf:RDF>
  </metadata>
  <defs id="defs6"/>
  <rect width="16" height="16" x="0" y="0" id="canvas" style="fill:none;stroke:none;visibility:hidden"/>
  <path d="M 3.5,0 C 2.119288,0 1,1.1192881 1,2.5 1,3.8807119 2.119288,5 3.5,5 4.425342,5 5.223985,4.4972377 5.65625,3.75 L 7,3.75 l 1,-1 1,1 1,-1 1,1 0.5,0 L 13,2.5 11.5,1.25 5.65625,1.25 C 5.223985,0.5027623 4.425342,0 3.5,0 z m -1,2 C 2.776142,2 3,2.2238576 3,2.5 3,2.7761424 2.776142,3 2.5,3 2.223858,3 2,2.7761424 2,2.5 2,2.2238576 2.223858,2 2.5,2 z M 4,6 3,9 C 2.527334,9 2,9.384295 2,10 l 0,3 1,0 c 0,0 0,1 1,1 1,0 1,-1 1,-1 l 4,0 c 0,0 0,1 1,1 1,0 1,-1 1,-1 l 1,0 0,-3 C 12,9.479394 11.544575,9 11,9 L 10,6 z m 1,1 4,0 0.625,2 -5.25,0 z m -1,3.25 c 0.414214,0 0.75,0.335786 0.75,0.75 0,0.414214 -0.335786,0.75 -0.75,0.75 -0.414214,0 -0.75,-0.335786 -0.75,-0.75 0,-0.414214 0.335786,-0.75 0.75,-0.75 z m 6,0 c 0.414214,0 0.75,0.335786 0.75,0.75 0,0.414214 -0.335786,0.75 -0.75,0.75 -0.414214,0 -0.75,-0.335786 -0.75,-0.75 0,-0.414214 0.335786,-0.75 0.75,-0.75 z" id="rental-car" style="fill:#0092da;stroke:none" transform="translate(1,1)"/>
</svg>

<?xml version="1.0" encoding="UTF-8"?>
<svg version="1.1" viewBox="0 0 16 16" xmlns="http://www.w3.org/2000/svg" xmlns:cc="http://creativecommons.org/ns#" xmlns:dc="http://purl.org/dc/elements/1.1/" xmlns:rdf="http://www.w3.org/1999/02/22-rdf-syntax-ns#">
<metadata>
<rdf:RDF>
<cc:Work rdf:about="">
<dc:format>image/svg+xml</dc:format>
<dc:type rdf:resource="http://purl.org/dc/dcmitype/StillImage"/>
<dc:title/>
</cc:Work>
</rdf:RDF>
</metadata>
<rect width="16" height="16" fill="none" visibility="hidden"/>
<path transform="translate(1,1)" d="m3.5 0c-1.3807 0-2.5 1.1193-2.5 2.5s1.1193 2.5 2.5 2.5c0.92534 0 1.724-0.50276 2.1562-1.25h1.3438l1-1 1 1 1-1 1 1h0.5l1.5-1.25-1.5-1.25h-5.8438c-0.43226-0.74724-1.2309-1.25-2.1562-1.25zm-1 2c0.27614 0 0.5 0.22386 0.5 0.5s-0.22386 0.5-0.5 0.5-0.5-0.22386-0.5-0.5 0.22386-0.5 0.5-0.5zm1.5 4-1 3c-0.47267 0-1 0.3843-1 1v3h1s0 1 1 1 1-1 1-1h4s0 1 1 1 1-1 1-1h1v-3c0-0.52061-0.45542-1-1-1l-1-3zm1 1h4l0.625 2h-5.25zm-1 3.25c0.41421 0 0.75 0.33579 0.75 0.75s-0.33579 0.75-0.75 0.75-0.75-0.33579-0.75-0.75 0.33579-0.75 0.75-0.75zm6 0c0.41421 0 0.75 0.33579 0.75 0.75s-0.33579 0.75-0.75 0.75-0.75-0.33579-0.75-0.75 0.33579-0.75 0.75-0.75z" fill="#0092da"/>
</svg>
